src/image/home.svg

<svg width="28" height="28" viewBox="0 0 28 28" fill="none" xmlns="http://www.w3.org/2000/svg">
<path d="M27.5583 13.9387C27.5583 13.9355 27.5552 13.9355 27.5552 13.9322L27.4996 13.8635C27.4965 13.8602 27.4934 13.8537 27.4872 13.8504C27.4656 13.8243 27.4409 13.7981 27.4193 13.772L15.4842 1.14624L14.6842 0.299293C14.5019 0.107591 14.2554 0 13.9984 0C13.7415 0 13.495 0.107591 13.3127 0.299293L0.577606 13.7752C0.347538 14.0175 0.177745 14.3164 0.0833977 14.6451L0.0648649 14.7137L0.0555984 14.7497L0.046332 14.7889C0.0401544 14.8118 0.0370657 14.8347 0.0339769 14.8576C0.0339769 14.8609 0.0339768 14.8674 0.030888 14.8707C0.0123552 14.9688 0.0030888 15.0669 0 15.1683V15.2762C0 15.2925 7.05477e-08 15.3089 0.00308887 15.3252C0.00308887 15.3416 0.00308882 15.3547 0.00617763 15.371C0.00617763 15.3874 0.00926638 15.4037 0.00926638 15.4201C0.00926638 15.4397 0.0123552 15.4593 0.015444 15.4789C0.015444 15.4887 0.0185329 15.4985 0.0185329 15.5084L0.0277993 15.5901V15.5934C0.185328 16.5907 1.02239 17.3429 2.00463 17.3429H3.31737V28H24.6826V17.3494H26.0232C26.2888 17.3494 26.5452 17.2938 26.7799 17.1892C27.0147 17.0845 27.234 16.9308 27.4224 16.7346C27.6064 16.5404 27.7522 16.3095 27.8514 16.0552C27.9505 15.801 28.001 15.5284 28 15.2533C28 14.7726 27.8455 14.3115 27.5583 13.9387ZM15.7282 25.6456H12.2687V18.9746H15.7282V25.6456ZM22.4587 14.995V25.6456H17.705V18.1898C17.705 17.4671 17.1521 16.8818 16.4695 16.8818H11.5274C10.8448 16.8818 10.2919 17.4671 10.2919 18.1898V25.6456H5.53822V14.995H2.57297L14.0015 2.90553L14.7151 3.66092L25.427 14.995H22.4587Z" fill="black"/>
</svg>

<svg width="28" height="28" fill="none" xmlns="http://www.w3.org/2000/svg"><path d="M27.558 13.939c0-.004-.003-.004-.003-.007l-.055-.069c-.003-.003-.007-.01-.013-.013-.021-.026-.046-.052-.068-.078L15.484 1.146l-.8-.847A.946.946 0 0 0 13.998 0a.946.946 0 0 0-.685.3L.578 13.774c-.23.242-.4.541-.495.87l-.018.069-.01.036-.009.039c-.006.023-.009.046-.012.069 0 .003 0 .01-.003.013a1.903 1.903 0 0 0-.031.297v.108c0 .017 0 .033.003.05 0 .016 0 .029.003.045 0 .016.003.033.003.05 0 .019.003.038.006.058 0 .01.004.02.004.03l.009.081v.003c.157.998.994 1.75 1.977 1.75h1.312V28h21.366V17.35h1.34c.266 0 .522-.056.757-.16a2.053 2.053 0 0 0 1.071-1.135c.1-.254.15-.527.149-.802 0-.48-.154-.941-.442-1.314Zm-11.83 11.707h-3.46v-6.671h3.46v6.67Zm6.73-10.651v10.65h-4.753V18.19c0-.723-.553-1.308-1.235-1.308h-4.943c-.682 0-1.235.585-1.235 1.308v7.456H5.538V14.995H2.573l11.428-12.09.714.756 10.712 11.334h-2.968Z" fill="#602915"/></svg>
